SVG_Azure_Grouped/Management/Backup Center.svg

<?xml version="1.0" encoding="UTF-8" standalone="no"?>
<!-- Generated by Microsoft Visio, SVG Export Backup Center.svg Page-1 -->

<svg
   xmlns:dc="http://purl.org/dc/elements/1.1/"
   xmlns:cc="http://creativecommons.org/ns#"
   xmlns:rdf="http://www.w3.org/1999/02/22-rdf-syntax-ns#"
   xmlns:svg="http://www.w3.org/2000/svg"
   xmlns="http://www.w3.org/2000/svg"
   xmlns:sodipodi="http://sodipodi.sourceforge.net/DTD/sodipodi-0.dtd"
   xmlns:inkscape="http://www.inkscape.org/namespaces/inkscape"
   width="0.79205066in"
   height="0.70884287in"
   viewBox="0 0 57.027831 51.036774"
   xml:space="preserve"
   class="st5"
   version="1.1"
   id="svg53"
   sodipodi:docname="Backup Center.svg"
   style="font-size:12px;overflow:visible;color-interpolation-filters:sRGB;fill:none;fill-rule:evenodd;stroke-linecap:square;stroke-miterlimit:3"
   inkscape:version="0.92.5 (2060ec1f9f, 2020-04-08)"><metadata
   id="metadata57"><rdf:RDF><cc:Work
       rdf:about=""><dc:format>image/svg+xml</dc:format><dc:type
         rdf:resource="http://purl.org/dc/dcmitype/StillImage" /></cc:Work></rdf:RDF></metadata><sodipodi:namedview
   pagecolor="#ffffff"
   bordercolor="#666666"
   borderopacity="1"
   objecttolerance="10"
   gridtolerance="10"
   guidetolerance="10"
   inkscape:pageopacity="0"
   inkscape:pageshadow="2"
   inkscape:window-width="640"
   inkscape:window-height="480"
   id="namedview55"
   showgrid="false"
   inkscape:zoom="1.4868353"
   inkscape:cx="38.016582"
   inkscape:cy="34.015994"
   inkscape:window-x="0"
   inkscape:window-y="0"
   inkscape:window-maximized="0"
   inkscape:current-layer="svg53" />
	<style
   type="text/css"
   id="style2">
	<![CDATA[
		.st1 {fill:url(#grad0-6);stroke:none;stroke-linecap:butt;stroke-width:34}
		.st2 {fill:#ffffff;stroke:none;stroke-linecap:butt;stroke-width:34}
		.st3 {fill:#50e6ff;stroke:none;stroke-linecap:butt;stroke-width:34}
		.st4 {fill:#0078d4;stroke:none;stroke-linecap:butt;stroke-width:34}
		.st5 {fill:none;fill-rule:evenodd;font-size:12px;overflow:visible;stroke-linecap:square;stroke-miterlimit:3}
	]]>
	</style>

	<defs
   id="Patterns_And_Gradients">
		<linearGradient
   id="grad0-6"
   x1="0"
   y1="107.21191"
   x2="35.642334"
   y2="107.21191"
   gradientTransform="scale(1.1999775,0.83334893)"
   gradientUnits="userSpaceOnUse">
			<stop
   offset="0"
   stop-color="#0078d4"
   stop-opacity="1"
   id="stop4" />
			<stop
   offset="0.15"
   stop-color="#1882db"
   stop-opacity="1"
   id="stop6" />
			<stop
   offset="0.375"
   stop-color="#378fe4"
   stop-opacity="1"
   id="stop8" />
			<stop
   offset="0.595"
   stop-color="#4c99ea"
   stop-opacity="1"
   id="stop10" />
			<stop
   offset="0.805"
   stop-color="#5a9eee"
   stop-opacity="1"
   id="stop12" />
			<stop
   offset="1"
   stop-color="#5ea0ef"
   stop-opacity="1"
   id="stop14" />
		</linearGradient>
	</defs>
	<g
   id="g51"
   transform="translate(-34.003471,-33.997817)">
		<title
   id="title18">Page-1</title>
		<g
   id="group12543-1"
   transform="translate(34.339,-34.0157)">
			<title
   id="title20">Backup Center.12543</title>
			<g
   id="group12544-2">
				<title
   id="title22">Sheet.12544</title>
				<g
   id="shape12545-3"
   transform="translate(13.9223,-21.3315)">
					<title
   id="title24">Sheet.12545</title>
					<path
   d="M 42.77,109.75 A 9.60365,9.4072 -180 0 0 34.43,100.7 12.1275,11.8794 -180 0 0 21.96,89.35 12.4323,12.178 -180 0 0 10.08,97.29 11.4719,11.2373 -180 0 0 0,108.1 11.6391,11.401 -180 0 0 12.05,119.04 8.17457,8.00736 -180 0 0 13.11,119 h 19.5 a 1.96662,1.92639 -180 0 0 0.51,-0.08 9.72165,9.52278 -180 0 0 9.65,-9.17 z"
   class="st1"
   id="path26"
   inkscape:connector-curvature="0"
   style="fill:url(#grad0-6);stroke:none;stroke-width:34;stroke-linecap:butt" />
				</g>
				<g
   id="shape12546-7"
   transform="translate(1.61103,-4.99256)">
					<title
   id="title29">Sheet.12546</title>
					<path
   d="m 32.39,101.63 0.06,1.38 1.41,0.19 a 8.32535,8.15505 0 0 1 7.21,7.8 8.45318,8.28026 0 0 1 -8.35,8.03 h -0.14 l -0.11,0.01 -0.11,-0.02 H 10.72 a 10.5935,10.3768 0 0 1 -4.05,-0.54 11.0622,10.8359 0 0 1 -3.63,-2.06 10.8951,10.6722 0 0 1 -2.43,-3.32 9.96092,9.75716 0 0 1 1.84,-10.31 10.3149,10.1039 0 0 1 6.42,-3.1 l 1.02,-0.12 0.36,-0.95 a 11.4293,11.1955 0 0 1 4.23,-5.33 11.2556,11.0254 0 0 1 6.55,-1.93 h 0.09 a 10.941,10.7171 0 0 1 11.27,10.27 z"
   class="st2"
   id="path31"
   inkscape:connector-curvature="0"
   style="fill:#ffffff;stroke:none;stroke-width:34;stroke-linecap:butt" />
				</g>
				<g
   id="shape12547-9"
   transform="translate(0,-3.35192)">
					<title
   id="title34">Sheet.12547</title>
					<path
   d="m 34.05,119.04 -0.28,-0.06 H 12.34 a 12.252,12.0014 0 0 1 -4.59,-0.62 12.6683,12.4092 0 0 1 -4.18,-2.38 12.5044,12.2486 0 0 1 -2.84,-3.85 11.6686,11.4299 0 0 1 2.11,-12.06 11.9636,11.7189 0 0 1 7.47,-3.62 v -0.02 a 12.9764,12.711 0 0 1 4.83,-6.1 12.4323,12.178 0 0 1 7.52,-2.22 12.6257,12.3674 0 0 1 12.96,11.81 l 0.05,0.04 a 9.94125,9.7379 0 0 1 8.63,9.34 10.0887,9.88238 0 0 1 -9.96,9.69 z M 22.6,91.32 a 9.63315,9.4361 -180 0 0 -9.2,6.21 l -0.71,1.88 -2.02,0.23 a 8.69901,8.52106 -180 0 0 -5.44,2.61 8.34501,8.17431 -180 0 0 -1.5,8.59 9.17755,8.98982 -180 0 0 2.04,2.77 9.17755,8.98982 -180 0 0 3.04,1.71 8.92517,8.7426 -180 0 0 3.41,0.46 h 21.96 a 6.82744,6.68778 -180 0 0 6.85,-6.47 6.64717,6.51119 -180 0 0 -5.8,-6.16 l -2.76,-0.36 -0.12,-2.74 a 9.31521,9.12466 -180 0 0 -9.57,-8.73 z"
   class="st3"
   id="path36"
   inkscape:connector-curvature="0"
   style="fill:#50e6ff;stroke:none;stroke-width:34;stroke-linecap:butt" />
				</g>
				<g
   id="shape12548-11"
   transform="translate(6.87193,-10.5309)">
					<title
   id="title39">Sheet.12548</title>
					<path
   d="m 8.52,115.31 v -0.97 l -1,-0.32 -0.26,-0.67 0.49,-1.01 v -0.11 L 7.42,111.91 7.05,111.52 H 6.92 L 5.94,112 5.25,111.83 4.83,110.75 H 3.85 l -0.33,0.98 -0.68,0.25 -1.15,-0.53 -0.71,0.7 v 0.12 l 0.49,0.96 -0.27,0.67 -1.2,0.41 v 0.97 h 0.14 l 1.04,0.34 0.3,0.66 -0.55,1.12 0.71,0.7 h 0.12 l 0.98,-0.5 0.69,0.27 0.43,1.17 h 0.99 v -0.13 l 0.35,-1.04 0.66,-0.27 1.16,0.52 0.69,-0.68 v -0.13 l -0.43,-0.93 0.2,-0.68 z m -4.16,0.89 a 1.39958,1.37095 0 1 1 0.51,-2.64 1.4258,1.39663 0 0 1 0.63,0.5 1.39958,1.37095 0 0 1 0.24,0.77 1.38319,1.35489 0 0 1 -1.31,1.37 z"
   class="st4"
   id="path41"
   inkscape:connector-curvature="0"
   style="fill:#0078d4;stroke:none;stroke-width:34;stroke-linecap:butt" />
				</g>
				<g
   id="shape12549-13"
   transform="translate(3.08087)">
					<title
   id="title44">Sheet.12549</title>
					<path
   d="m 8.1,115.71 a 11.5932,11.3561 0 1 1 11.67,-11.36 h -3.52 a 8.06969,7.90462 -180 1 0 -8.08,7.9 h 2.57 a 0.183551,0.179796 -180 0 0 0.183551,-0.0514 0.206495,0.202271 -180 0 0 0.05244,-0.0835 0.249105,0.244009 -180 0 0 0,-0.0963 L 10.98,109.22 a 0.28516,0.279326 0 0 1 0.17044,-0.21511 0.32777,0.321065 0 0 1 0.272049,0.0578 L 16.33,113.88 a 0.268771,0.263273 0 0 1 0,0.15732 0.258938,0.253641 0 0 1 -0.0885,0.13485 L 11.33,118.99 a 0.272049,0.266484 0 0 1 -0.137663,0.0578 0.245827,0.240799 0 0 1 -0.144219,-0.0225 0.268771,0.263273 0 0 1 -0.114719,-0.0931 0.24255,0.237588 0 0 1 -0.04589,-0.13806 L 10.89,115.95 a 0.245827,0.240799 -180 0 0 -0.07211,-0.17016 0.239272,0.234377 -180 0 0 -0.176996,-0.0706 z"
   class="st4"
   id="path46"
   inkscape:connector-curvature="0"
   style="fill:#0078d4;stroke:none;stroke-width:34;stroke-linecap:butt" />
				</g>
			</g>
		</g>
	</g>
</svg>

<?xml version="1.0" encoding="UTF-8" standalone="no"?>
<!DOCTYPE svg PUBLIC "-//W3C//DTD SVG 1.1//EN" "http://www.w3.org/Graphics/SVG/1.1/DTD/svg11.dtd">
<!-- Generated by Microsoft Visio, SVG Export Backup Center.svg Page-1 -->
<svg xmlns="http://www.w3.org/2000/svg" xmlns:xlink="http://www.w3.org/1999/xlink" xmlns:ev="http://www.w3.org/2001/xml-events"
		width="1.73655in" height="1.6534in" viewBox="0 0 125.032 119.045" xml:space="preserve" color-interpolation-filters="sRGB"
		class="st5">
	<style type="text/css">
	<![CDATA[
		.st1 {fill:url(#grad0-6);stroke:none;stroke-linecap:butt;stroke-width:34}
		.st2 {fill:#ffffff;stroke:none;stroke-linecap:butt;stroke-width:34}
		.st3 {fill:#50e6ff;stroke:none;stroke-linecap:butt;stroke-width:34}
		.st4 {fill:#0078d4;stroke:none;stroke-linecap:butt;stroke-width:34}
		.st5 {fill:none;fill-rule:evenodd;font-size:12px;overflow:visible;stroke-linecap:square;stroke-miterlimit:3}
	]]>
	</style>

	<defs id="Patterns_And_Gradients">
		<linearGradient id="grad0-6" x1="0" y1="0" x2="1" y2="0" gradientTransform="rotate(-90 0.5 0.5)">
			<stop offset="0" stop-color="#0078d4" stop-opacity="1"/>
			<stop offset="0.15" stop-color="#1882db" stop-opacity="1"/>
			<stop offset="0.375" stop-color="#378fe4" stop-opacity="1"/>
			<stop offset="0.595" stop-color="#4c99ea" stop-opacity="1"/>
			<stop offset="0.805" stop-color="#5a9eee" stop-opacity="1"/>
			<stop offset="1" stop-color="#5ea0ef" stop-opacity="1"/>
		</linearGradient>
	</defs>
	<g>
		<title>Page-1</title>
		<g id="group12261-1" transform="translate(34.339,-34.0157)">
			<title>Backup Center.12261</title>
			<g id="group12262-2">
				<title>Sheet.12262</title>
				<g id="shape12263-3" transform="translate(13.9223,-21.3315)">
					<title>Sheet.12263</title>
					<path d="M42.77 109.75 A9.60365 9.4072 -180 0 0 34.43 100.7 A12.1275 11.8794 -180 0 0 21.96 89.35 A12.4323 12.178
								 -180 0 0 10.08 97.29 A11.4719 11.2373 -180 0 0 -0 108.1 A11.6391 11.401 -180 0 0 12.05 119.04 A8.17457
								 8.00736 -180 0 0 13.11 119 L32.61 119 A1.96662 1.92639 -180 0 0 33.12 118.92 A9.72165 9.52278 -180
								 0 0 42.77 109.75 Z" class="st1"/>
				</g>
				<g id="shape12264-7" transform="translate(1.61103,-4.99256)">
					<title>Sheet.12264</title>
					<path d="M32.39 101.63 L32.45 103.01 L33.86 103.2 A8.32535 8.15505 0 0 1 41.07 111 A8.45318 8.28026 0 0 1 32.72
								 119.03 L32.58 119.03 L32.47 119.04 L32.36 119.02 L10.72 119.02 A10.5935 10.3768 0 0 1 6.67 118.48
								 A11.0622 10.8359 0 0 1 3.04 116.42 A10.8951 10.6722 0 0 1 0.61 113.1 A9.96092 9.75716 0 0 1 2.45
								 102.79 A10.3149 10.1039 0 0 1 8.87 99.69 L9.89 99.57 L10.25 98.62 A11.4293 11.1955 0 0 1 14.48 93.29
								 A11.2556 11.0254 0 0 1 21.03 91.36 L21.12 91.36 A10.941 10.7171 0 0 1 32.39 101.63 L32.39 101.63
								 Z" class="st2"/>
				</g>
				<g id="shape12265-9" transform="translate(2.8777E-13,-3.35192)">
					<title>Sheet.12265</title>
					<path d="M34.05 119.04 L33.77 118.98 L12.34 118.98 A12.252 12.0014 0 0 1 7.75 118.36 A12.6683 12.4092 0 0 1 3.57
								 115.98 A12.5044 12.2486 0 0 1 0.73 112.13 A11.6686 11.4299 0 0 1 2.84 100.07 A11.9636 11.7189 0
								 0 1 10.31 96.45 L10.31 96.43 A12.9764 12.711 0 0 1 15.14 90.33 A12.4323 12.178 0 0 1 22.66 88.11
								 A12.6257 12.3674 0 0 1 35.62 99.92 L35.67 99.96 A9.94125 9.7379 0 0 1 44.3 109.3 A10.0887 9.88238
								 0 0 1 34.34 118.99 L34.05 119.04 ZM22.6 91.32 A9.63315 9.4361 -180 0 0 13.4 97.53 L12.69 99.41 L10.67
								 99.64 A8.69901 8.52106 -180 0 0 5.23 102.25 A8.34501 8.17431 -180 0 0 3.73 110.84 A9.17755 8.98982
								 -180 0 0 5.77 113.61 A9.17755 8.98982 -180 0 0 8.81 115.32 A8.92517 8.7426 -180 0 0 12.22 115.78
								 L34.18 115.78 A6.82744 6.68778 -180 0 0 41.03 109.31 A6.64717 6.51119 -180 0 0 35.23 103.15 L32.47
								 102.79 L32.35 100.05 A9.31521 9.12466 -180 0 0 22.78 91.32 L22.6 91.32 Z" class="st3"/>
				</g>
				<g id="shape12266-11" transform="translate(6.87193,-10.5309)">
					<title>Sheet.12266</title>
					<path d="M8.52 115.31 L8.52 114.34 L7.52 114.02 L7.26 113.35 L7.75 112.34 L7.75 112.23 L7.42 111.91 L7.05 111.52
								 L6.92 111.52 L5.94 112 L5.25 111.83 L4.83 110.75 L3.85 110.75 L3.52 111.73 L2.84 111.98 L1.69 111.45
								 L0.98 112.15 L0.98 112.27 L1.47 113.23 L1.2 113.9 L0 114.31 L0 115.28 L0.14 115.28 L1.18 115.62
								 L1.48 116.28 L0.93 117.4 L1.64 118.1 L1.76 118.1 L2.74 117.6 L3.43 117.87 L3.86 119.04 L4.85 119.04
								 L4.85 118.91 L5.2 117.87 L5.86 117.6 L7.02 118.12 L7.71 117.44 L7.71 117.31 L7.28 116.38 L7.48 115.7
								 L8.52 115.31 ZM4.36 116.2 A1.39958 1.37095 0 1 1 4.87 113.56 A1.4258 1.39663 0 0 1 5.5 114.06 A1.39958
								 1.37095 0 0 1 5.74 114.83 A1.38319 1.35489 0 0 1 4.43 116.2 L4.36 116.2 Z" class="st4"/>
				</g>
				<g id="shape12267-13" transform="translate(3.08087,2.55795E-13)">
					<title>Sheet.12267</title>
					<path d="M8.1 115.71 A11.5932 11.3561 0 1 1 19.77 104.35 L16.25 104.35 A8.06969 7.90462 -180 1 0 8.17 112.25
								 L10.74 112.25 a0.183551 0.179796 -180 0 0 0.183551 -0.0513704 a0.206495 0.202271 -180 0 0 0.0524431
								 -0.0834769 a0.249105 0.244009 -180 0 0 8.17124E-14 -0.0963194 L10.98 109.22 a0.28516 0.279326 0
								 0 1 0.17044 -0.215113 a0.32777 0.321065 0 0 1 0.272049 0.0577917 L16.33 113.88 a0.268771 0.263273
								 0 0 1 0 0.157322 a0.258938 0.253641 0 0 1 -0.0884978 0.134847 L11.33 118.99 a0.272049 0.266484 0
								 0 1 -0.137663 0.0577917 a0.245827 0.240799 0 0 1 -0.144219 -0.0224745 a0.268771 0.263273 0 0 1 -0.114719
								 -0.0931088 a0.24255 0.237588 0 0 1 -0.0458877 -0.138058 L10.89 115.95 a0.245827 0.240799 -180 0
								 0 -0.0721093 -0.170164 a0.239272 0.234377 -180 0 0 -0.176996 -0.0706343 L8.1 115.71 L8.1 115.71
								 Z" class="st4"/>
				</g>
			</g>
		</g>
	</g>
</svg>
